src/images_karasa_jaga_svg/cmd/sc_intersect.svg

<svg height="16" width="16" xmlns="http://www.w3.org/2000/svg" xmlns:xlink="http://www.w3.org/1999/xlink"><linearGradient id="a"><stop offset="0" stop-color="#717174"/><stop offset=".5" stop-color="#9c9ca1"/><stop offset="1" stop-color="#bdbdc2"/></linearGradient><linearGradient id="b" gradientUnits="userSpaceOnUse" x1="43.517578" x2="112" xlink:href="#a" y1="45.241211" y2="44.185516"/><linearGradient id="c" gradientUnits="userSpaceOnUse" x1="56" x2="83.993576" y1="73.839844" y2="42.689865"><stop offset="0" stop-color="#fff"/><stop offset=".42597079" stop-color="#fff"/><stop offset=".5892781" stop-color="#e5e5e5"/><stop offset=".80219781" stop-color="#eaeaea"/><stop offset="1" stop-color="#eee"/></linearGradient><linearGradient id="d" gradientTransform="matrix(.06940294 0 0 -.11152913 8.766347 177.28781)" gradientUnits="userSpaceOnUse" x1="-11.041996" x2="1141.647" xlink:href="#a" y1="904.03656" y2="872.30853"/><linearGradient id="e" gradientUnits="userSpaceOnUse" x1="91.591782" x2="232" y1="31.999998" y2="-4.547726"><stop offset="0" stop-color="#b4b4b6"/><stop offset=".5" stop-color="#9c9ca1"/><stop offset="1" stop-color="#cdcdd1"/></linearGradient><g transform="scale(.125)"><path d="m50.123047 48a34.440138 34.440138 0 0 0 29.876953 29.855469v-28.589844c0-.70134-.67926-1.265625-1.523438-1.265625z" fill="url(#c)"/><path d="m10.720703 40c-1.5075378 0-2.720703 1.410771-2.720703 3.164062v4.835938h9.265625 6.734375v-8zm21.279297 0v8h8v-8zm16 0v8h1.845703a34.440138 34.440138 0 0 1 -.277344-4.001953 34.440138 34.440138 0 0 1 .25586-3.998047zm-40 16v8h8v-8zm40 0v7.539062a40.984135 40.984135 0 0 0 .279297.460938h7.720703v-.0332a34.440138 34.440138 0 0 1 -4.25-7.9668zm-40 16v8h8v-8zm46.183594 0a40.984135 40.984135 0 0 0 1.816406 1.839844v-1.839844zm9.816406 0v7.673828a40.984135 40.984135 0 0 0 .568359.326172h7.431641v-3.767578a34.440138 34.440138 0 0 1 -7.996094-4.232422zm24 6.164062a34.440138 34.440138 0 0 1 -3.992188.275391 34.440138 34.440138 0 0 1 -4.007812-.257812v1.818359h8zm-80 9.835938v8h8v-8zm72 0v8h8v-8zm-72 16v12.83594c0 1.75329 1.2131652 3.16406 2.720703 3.16406h13.279297v-8h-6.734375c-.70134 0-1.265625-.67926-1.265625-1.52344v-6.47656zm72 0v6.47656 9.52344h5.279297c1.50754 0 2.720703-1.41077 2.720703-3.16406v-12.83594zm-48 8v8h8v-8zm16 0v8h8v-8zm16 0v8h8v-8z" fill="url(#d)" opacity=".75"/><path d="m43.253906 40c-.143884 1.328035-.222754 2.66231-.236328 3.998047.0018 1.336466.0689 2.672047.201172 4.001953 1.927966 19.453071 17.326344 34.836732 36.78125 36.746094 1.329331.144011 2.664912.222881 4.001953.236328 1.335164-.001894 2.669437-.069031 3.998047-.201172v-6.617188-35.443359c0-1.507538-1.410771-2.720703-3.164062-2.720703h-35.011719zm6.591797 8h28.630859c.844178 0 1.523438.564285 1.523438 1.265625v25.953125l.0016 2.987022c.000024.04513-5.588125-.834461-7.03871-1.621788-12.571782-4.274766-21.566195-15.396195-23.117187-28.583984z" fill="url(#b)" opacity=".75"/><path d="m80 3.2168a40.984135 40.984135 0 0 0 -7.519531 1.4804687l2.511719 6.0644533c1.643182-.465969 3.316984-.8042906 5.007812-1.0214845zm8 .035156v6.3066407c1.717994.2139546 3.414893.5621763 5.080078 1.0312503l2.44336-5.8945316a40.984135 40.984135 0 0 0 -7.523438-1.4433594zm14.94531 4.4257813-2.4375 5.8828127c1.55129.819026 3.04345 1.742383 4.45117 2.787109l4.47852-4.478515a40.984135 40.984135 0 0 0 -6.49219-4.1914067zm-37.88281.015625a40.984135 40.984135 0 0 0 -6.46875 4.2070317l4.677734 4.677734c1.366019-1.037514 2.802649-1.9788 4.310547-2.802734zm50.12891 9.7363287-4.57422 4.574218c.42705.521303.84013 1.053473 1.23633 1.59961l.14648-.134766c.65956.911538 1.25165 1.857439 1.8125 2.816406l5.85352-2.425781a40.984135 40.984135 0 0 0 -4.47461-6.429687zm-62.351566.0293a40.984135 40.984135 0 0 0 -4.476563 6.414063l6.107422 2.529297c.165189-.282519.315077-.573822.488281-.851563.04723-.0757.09476-.151222.142578-.226562.705745-1.140555 1.494669-2.22529 2.328126-3.275391zm70.056636 13.722657-5.86718 2.429687c.53493 1.754236.92499 3.543218 1.17382 5.351563h6.4336a40.984135 40.984135 0 0 0 -1.74024-7.78125zm-77.765621.0098a40.984135 40.984135 0 0 0 -1.771484 7.771485h6.628906c.271198-1.782384.681044-3.536265 1.226563-5.251953zm73.232421 15.771485c-.17795 1.848079-.49882 3.686915-.97851 5.5l6.08789 2.521484a40.984135 40.984135 0 0 0 1.40039-8.021484zm-3.91211 12.943359c-.26831.51381-.54398 1.023801-.83789 1.523438-.45757.768688-.94492 1.519258-1.46094 2.25-.0595.08686-.11938.173455-.17968.259765-.18504.259881-.37833.51319-.57032.767578l4.70899 4.708985a40.984135 40.984135 0 0 0 4.45898-6.97461zm-8.58008 10.583984c-.46949.388565-.94522.771051-1.43554 1.134766l.0859.09375c-1.08967.778754-2.22712 1.484962-3.39843 2.130859l2.51757 6.076172a40.984135 40.984135 0 0 0 6.90626-4.759765zm-12.123043 6.457032-.0098.002c-1.8747.567301-3.794421.973724-5.738247 1.214757v3.671876 2.912109a40.984135 40.984135 0 0 0 8.275391-1.699219z" fill="url(#e)"/></g></svg>

<?xml version="1.0" encoding="UTF-8" standalone="no"?>
<!-- Created with Inkscape (http://www.inkscape.org/) -->

<svg
   xmlns:dc="http://purl.org/dc/elements/1.1/"
   xmlns:cc="http://creativecommons.org/ns#"
   xmlns:rdf="http://www.w3.org/1999/02/22-rdf-syntax-ns#"
   xmlns:svg="http://www.w3.org/2000/svg"
   xmlns="http://www.w3.org/2000/svg"
   xmlns:xlink="http://www.w3.org/1999/xlink"
   xmlns:sodipodi="http://sodipodi.sourceforge.net/DTD/sodipodi-0.dtd"
   xmlns:inkscape="http://www.inkscape.org/namespaces/inkscape"
   width="128"
   height="128"
   id="svg1307"
   sodipodi:version="0.32"
   inkscape:version="0.92.3 (2405546, 2018-03-11)"
   version="1.0"
   sodipodi:docname="sc_intersect.svg"
   inkscape:export-filename="/home/rizmut/Documents/Rizmut/Github/libreoffice-style-karasa-jaga/build/images_karasa_jaga/cmd/sc_intersect.png"
   inkscape:export-xdpi="12"
   inkscape:export-ydpi="12"
   inkscape:output_extension="org.inkscape.output.svgz.inkscape">
  <defs
     id="defs1309">
    <linearGradient
       id="linearGradient2783">
      <stop
         style="stop-color:#323232;stop-opacity:1;"
         offset="0"
         id="stop2785" />
      <stop
         id="stop2787"
         offset="0.07692308"
         style="stop-color:#dfe1e1;stop-opacity:1;" />
      <stop
         style="stop-color:#b6b1b1;stop-opacity:1;"
         offset="0.26289096"
         id="stop2799" />
      <stop
         id="stop2789"
         offset="0.5"
         style="stop-color:#8d8282;stop-opacity:1;" />
      <stop
         style="stop-color:#ffffff;stop-opacity:1;"
         offset="0.78201604"
         id="stop2791" />
      <stop
         style="stop-color:#dfd9df;stop-opacity:1;"
         offset="0.9005897"
         id="stop2793" />
      <stop
         style="stop-color:#3a3a3a;stop-opacity:1;"
         offset="1"
         id="stop2795" />
    </linearGradient>
    <linearGradient
       id="linearGradient2431">
      <stop
         style="stop-color:#ffffff;stop-opacity:1;"
         offset="0"
         id="stop2433" />
      <stop
         id="stop2435"
         offset="0.42597079"
         style="stop-color:#ffffff;stop-opacity:1;" />
      <stop
         id="stop2437"
         offset="0.5892781"
         style="stop-color:#f1f1f1;stop-opacity:1;" />
      <stop
         style="stop-color:#eaeaea;stop-opacity:1;"
         offset="0.80219781"
         id="stop2439" />
      <stop
         style="stop-color:#dfdfdf;stop-opacity:1;"
         offset="1"
         id="stop2441" />
    </linearGradient>
    <linearGradient
       id="linearGradient7422">
      <stop
         style="stop-color:#b4b4b6;stop-opacity:1;"
         offset="0"
         id="stop7424" />
      <stop
         id="stop5348"
         offset="0.5"
         style="stop-color:#9c9ca1;stop-opacity:1;" />
      <stop
         id="stop7426"
         offset="1"
         style="stop-color:#cdcdd1;stop-opacity:1;" />
    </linearGradient>
    <clipPath
       clipPathUnits="userSpaceOnUse"
       id="clipPath10698">
      <path
         style="fill:#ffffff;fill-opacity:1;fill-rule:nonzero;stroke:none;stroke-width:0.80000001;stroke-linecap:round;stroke-linejoin:round;stroke-miterlimit:4;stroke-dasharray:none;stroke-dashoffset:4;stroke-opacity:1"
         d="M -128.2008,-3.392377 L -104.45558,6.3360672 L -102.43766,6.1757677 L -103.81912,-4.5678172 L -105.75454,-5.8316609 L -124.96922,-4.4459394 L -128.2008,-3.392377 z "
         id="path10700"
         sodipodi:nodetypes="ccccccc" />
    </clipPath>
    <filter
       inkscape:collect="always"
       id="filter4420">
      <feGaussianBlur
         inkscape:collect="always"
         stdDeviation="3.0486726"
         id="feGaussianBlur4422" />
    </filter>
    <mask
       maskUnits="userSpaceOnUse"
       id="mask4424">
      <rect
         style="opacity:1;fill:#ffffff;fill-opacity:1;stroke:none;stroke-width:0.163;stroke-linecap:round;stroke-linejoin:round;stroke-miterlimit:4;stroke-dasharray:none;stroke-opacity:1;filter:url(#filter4420)"
         id="rect4426"
         width="112"
         height="100"
         x="12"
         y="4"
         rx="1.1997639"
         ry="1.4444447"
         transform="matrix(1.1453342,0,0,1.1453342,-3.2375486,-15.52592)" />
    </mask>
    <linearGradient
       id="linearGradient3323">
      <stop
         style="stop-color:#c7cdd7;stop-opacity:1;"
         offset="0"
         id="stop3325" />
      <stop
         style="stop-color:#ffffff;stop-opacity:1;"
         offset="1"
         id="stop3327" />
    </linearGradient>
    <linearGradient
       id="linearGradient4199">
      <stop
         style="stop-color:#f1f1f1;stop-opacity:1;"
         offset="0"
         id="stop4201-6" />
      <stop
         style="stop-color:#ffffff;stop-opacity:1;"
         offset="1"
         id="stop4203" />
    </linearGradient>
    <linearGradient
       id="linearGradient2399-5-5">
      <stop
         id="stop2401-5-5"
         offset="0"
         style="stop-color:#0968ef;stop-opacity:1;" />
      <stop
         id="stop2403-6-4"
         offset="1"
         style="stop-color:#aecffc;stop-opacity:1;" />
    </linearGradient>
    <linearGradient
       x1="399.77466"
       y1="1164.6696"
       x2="399.77466"
       y2="549.06134"
       id="linearGradient5507"
       xlink:href="#linearGradient7422-3"
       gradientUnits="userSpaceOnUse"
       gradientTransform="matrix(0.09253752,0,0,0.14870594,30.566011,47.945876)" />
    <linearGradient
       id="linearGradient7422-3">
      <stop
         id="stop7424-5"
         style="stop-color:#717174;stop-opacity:1"
         offset="0" />
      <stop
         id="stop5348-6"
         style="stop-color:#9c9ca1;stop-opacity:1"
         offset="0.5" />
      <stop
         id="stop7426-2"
         style="stop-color:#cdcdd1;stop-opacity:1"
         offset="1" />
    </linearGradient>
    <radialGradient
       cx="-33.5"
       cy="194.5"
       r="5.5"
       fx="-33.5"
       fy="194.5"
       id="radialGradient5509"
       xlink:href="#linearGradient2399"
       gradientUnits="userSpaceOnUse"
       gradientTransform="matrix(6.6492665,0,0,6.6492656,305.03583,-1117.9053)" />
    <linearGradient
       id="linearGradient2399">
      <stop
         id="stop2401"
         style="stop-color:#a9cbfc;stop-opacity:1"
         offset="0" />
      <stop
         id="stop2403"
         style="stop-color:#aecffc;stop-opacity:1"
         offset="1" />
    </linearGradient>
    <radialGradient
       cx="194.5"
       cy="-33.5"
       r="5.5"
       fx="194.5"
       fy="-33.5"
       id="radialGradient5511"
       xlink:href="#linearGradient2222"
       gradientUnits="userSpaceOnUse"
       gradientTransform="matrix(4.9357767,0,0,4.9357767,-870.64796,211.73605)" />
    <linearGradient
       id="linearGradient2222">
      <stop
         id="stop2224"
         style="stop-color:#8fbcff;stop-opacity:1"
         offset="0" />
      <stop
         id="stop2226"
         style="stop-color:#80b3ff;stop-opacity:1"
         offset="1" />
    </linearGradient>
    <linearGradient
       x1="399.77466"
       y1="1164.6696"
       x2="399.77466"
       y2="549.06134"
       id="linearGradient5501"
       xlink:href="#linearGradient4373"
       gradientUnits="userSpaceOnUse"
       gradientTransform="matrix(0,0.06940294,0.11152913,0,32.703527,46.639005)" />
    <linearGradient
       id="linearGradient4373">
      <stop
         id="stop4375"
         style="stop-color:#717174;stop-opacity:1"
         offset="0" />
      <stop
         id="stop4377"
         style="stop-color:#9c9ca1;stop-opacity:1"
         offset="0.5" />
      <stop
         id="stop4379"
         style="stop-color:#bdbdc2;stop-opacity:1"
         offset="1" />
    </linearGradient>
    <linearGradient
       x1="119.57646"
       y1="23.792561"
       x2="15.999996"
       y2="109.6508"
       id="linearGradient5503"
       xlink:href="#linearGradient2431-9"
       gradientUnits="userSpaceOnUse"
       gradientTransform="matrix(0,0.57141947,0.76189347,0,18.383675,68.794339)" />
    <linearGradient
       id="linearGradient2431-9">
      <stop
         id="stop2433-1"
         style="stop-color:#ffffff;stop-opacity:1"
         offset="0" />
      <stop
         id="stop2435-2"
         style="stop-color:#ffffff;stop-opacity:1"
         offset="0.42597079" />
      <stop
         id="stop2437-7"
         style="stop-color:#e5e5e5;stop-opacity:1"
         offset="0.5892781" />
      <stop
         id="stop2439-0"
         style="stop-color:#eaeaea;stop-opacity:1"
         offset="0.80219781" />
      <stop
         id="stop2441-9"
         style="stop-color:#eeeeee;stop-opacity:1"
         offset="1" />
    </linearGradient>
    <linearGradient
       x1="102.31124"
       y1="-5.8302126"
       x2="74.330322"
       y2="32"
       id="linearGradient5505"
       xlink:href="#linearGradient3310"
       gradientUnits="userSpaceOnUse"
       gradientTransform="matrix(0,-1.3692663,-1.7142582,0,101.14142,195.38729)" />
    <linearGradient
       id="linearGradient3310">
      <stop
         id="stop3312"
         style="stop-color:#ffffff;stop-opacity:1"
         offset="0" />
      <stop
         id="stop3314"
         style="stop-color:#ffffff;stop-opacity:0"
         offset="1" />
    </linearGradient>
    <linearGradient
       inkscape:collect="always"
       xlink:href="#linearGradient4373"
       id="linearGradient1723"
       x1="0"
       y1="122"
       x2="12"
       y2="122"
       gradientUnits="userSpaceOnUse" />
    <linearGradient
       inkscape:collect="always"
       xlink:href="#linearGradient4373"
       id="linearGradient991"
       x1="43.517578"
       y1="45.241211"
       x2="112"
       y2="44.185516"
       gradientUnits="userSpaceOnUse" />
    <linearGradient
       inkscape:collect="always"
       xlink:href="#linearGradient2431-9"
       id="linearGradient1018"
       gradientUnits="userSpaceOnUse"
       gradientTransform="matrix(1.1869564,0,0,1.1869564,-19.600606,-1.1400758)"
       x1="63.692825"
       y1="63.169903"
       x2="87.277161"
       y2="36.926327" />
    <linearGradient
       inkscape:collect="always"
       xlink:href="#linearGradient4373"
       id="linearGradient1022"
       gradientUnits="userSpaceOnUse"
       gradientTransform="matrix(0.06940294,0,0,-0.11152913,8.766347,177.28781)"
       x1="-11.041996"
       y1="904.03656"
       x2="1141.647"
       y2="872.30853" />
    <linearGradient
       inkscape:collect="always"
       xlink:href="#linearGradient7422"
       id="linearGradient993"
       gradientUnits="userSpaceOnUse"
       gradientTransform="matrix(1.2145135,0,0,1.2145135,-22.013211,-2.188039)"
       x1="93.539505"
       y1="28.149574"
       x2="209.14812"
       y2="-1.9429072" />
  </defs>
  <sodipodi:namedview
     id="base"
     pagecolor="#ffffff"
     bordercolor="#666666"
     borderopacity="1.0"
     inkscape:pageopacity="0.0"
     inkscape:pageshadow="2"
     inkscape:zoom="2"
     inkscape:cx="33.820799"
     inkscape:cy="101.53224"
     inkscape:current-layer="layer1"
     showgrid="true"
     inkscape:document-units="px"
     inkscape:grid-bbox="true"
     guidetolerance="4"
     showguides="true"
     inkscape:guide-bbox="true"
     inkscape:window-width="1366"
     inkscape:window-height="696"
     inkscape:window-x="0"
     inkscape:window-y="0"
     objecttolerance="4"
     gridtolerance="4"
     inkscape:snap-nodes="true"
     inkscape:window-maximized="1">
    <sodipodi:guide
       orientation="horizontal"
       position="-32.073749"
       id="guide2204"
       inkscape:locked="false" />
    <inkscape:grid
       id="GridFromPre046Settings"
       type="xygrid"
       originx="0"
       originy="0"
       spacingx="8"
       spacingy="8"
       color="#0000ff"
       empcolor="#0000ff"
       opacity="0.2"
       empopacity="0.4"
       empspacing="1"
       visible="true"
       enabled="true" />
  </sodipodi:namedview>
  <metadata
     id="metadata1312">
    <rdf:RDF>
      <cc:Work
         rdf:about="">
        <dc:format>image/svg+xml</dc:format>
        <dc:type
           rdf:resource="http://purl.org/dc/dcmitype/StillImage" />
        <cc:license
           rdf:resource="http://creativecommons.org/licenses/GPL/2.0/" />
        <dc:contributor>
          <cc:Agent>
            <dc:title>Oxygen team</dc:title>
          </cc:Agent>
        </dc:contributor>
        <dc:title />
      </cc:Work>
      <cc:License
         rdf:about="http://creativecommons.org/licenses/LGPL/2.1/">
        <cc:permits
           rdf:resource="http://web.resource.org/cc/Reproduction" />
        <cc:permits
           rdf:resource="http://web.resource.org/cc/Distribution" />
        <cc:requires
           rdf:resource="http://web.resource.org/cc/Notice" />
        <cc:permits
           rdf:resource="http://web.resource.org/cc/DerivativeWorks" />
        <cc:requires
           rdf:resource="http://web.resource.org/cc/ShareAlike" />
        <cc:requires
           rdf:resource="http://web.resource.org/cc/SourceCode" />
      </cc:License>
    </rdf:RDF>
  </metadata>
  <g
     id="layer1"
     inkscape:label="Layer 1"
     inkscape:groupmode="layer">
    <g
       id="g892">
      <path
         id="path1014"
         d="M 50.123047 48 A 34.440138 34.440138 0 0 0 80 77.855469 L 80 49.265625 C 80 48.564285 79.32074 48 78.476562 48 L 50.123047 48 z "
         style="opacity:1;vector-effect:none;fill:url(#linearGradient1018);fill-opacity:1;stroke:none;stroke-width:6.26184416;stroke-linecap:butt;stroke-linejoin:miter;stroke-miterlimit:4;stroke-dasharray:none;stroke-dashoffset:0;stroke-opacity:1" />
      <path
         id="path1005"
         d="M 10.720703 40 C 9.2131652 40 8 41.410771 8 43.164062 L 8 48 L 17.265625 48 L 24 48 L 24 40 L 10.720703 40 z M 32 40 L 32 48 L 40 48 L 40 40 L 32 40 z M 48 40 L 48 48 L 49.845703 48 A 34.440138 34.440138 0 0 1 49.568359 43.998047 A 34.440138 34.440138 0 0 1 49.824219 40 L 48 40 z M 8 56 L 8 64 L 16 64 L 16 56 L 8 56 z M 48 56 L 48 63.539062 A 40.984135 40.984135 0 0 0 48.279297 64 L 56 64 L 56 63.966797 A 34.440138 34.440138 0 0 1 51.75 56 L 48 56 z M 8 72 L 8 80 L 16 80 L 16 72 L 8 72 z M 54.183594 72 A 40.984135 40.984135 0 0 0 56 73.839844 L 56 72 L 54.183594 72 z M 64 72 L 64 79.673828 A 40.984135 40.984135 0 0 0 64.568359 80 L 72 80 L 72 76.232422 A 34.440138 34.440138 0 0 1 64.003906 72 L 64 72 z M 88 78.164062 A 34.440138 34.440138 0 0 1 84.007812 78.439453 A 34.440138 34.440138 0 0 1 80 78.181641 L 80 80 L 88 80 L 88 78.164062 z M 8 88 L 8 96 L 16 96 L 16 88 L 8 88 z M 80 88 L 80 96 L 88 96 L 88 88 L 80 88 z M 8 104 L 8 116.83594 C 8 118.58923 9.2131652 120 10.720703 120 L 24 120 L 24 112 L 17.265625 112 C 16.564285 112 16 111.32074 16 110.47656 L 16 104 L 8 104 z M 80 104 L 80 110.47656 L 80 120 L 85.279297 120 C 86.786837 120 88 118.58923 88 116.83594 L 88 104 L 80 104 z M 32 112 L 32 120 L 40 120 L 40 112 L 32 112 z M 48 112 L 48 120 L 56 120 L 56 112 L 48 112 z M 64 112 L 64 120 L 72 120 L 72 112 L 64 112 z "
         style="opacity:0.75;fill:url(#linearGradient1022);fill-opacity:1;fill-rule:nonzero;stroke:none;stroke-width:13.71407032;stroke-linecap:round;stroke-linejoin:round;stroke-miterlimit:4;stroke-dasharray:none;stroke-dashoffset:4;stroke-opacity:1" />
      <path
         sodipodi:nodetypes="cccccccsscccsscscc"
         inkscape:connector-curvature="0"
         id="path926"
         d="m 43.253906,40 c -0.143884,1.328035 -0.222754,2.66231 -0.236328,3.998047 0.0018,1.336466 0.0689,2.672047 0.201172,4.001953 C 45.146716,67.453071 60.545094,82.836732 80,84.746094 c 1.329331,0.144011 2.664912,0.222881 4.001953,0.236328 C 85.337117,84.980528 86.67139,84.913391 88,84.78125 V 78.164062 42.720703 C 88,41.213165 86.589229,40 84.835938,40 H 49.824219 Z m 6.591797,8 H 78.476562 C 79.32074,48 80,48.564285 80,49.265625 V 75.21875 l 0.0016,2.987022 c 2.4e-5,0.04513 -5.588125,-0.834461 -7.03871,-1.621788 C 60.391108,72.309218 51.396695,61.187789 49.845703,48 Z"
         style="opacity:0.75;fill:url(#linearGradient991);fill-opacity:1;fill-rule:nonzero;stroke:none;stroke-width:13.71407032;stroke-linecap:round;stroke-linejoin:round;stroke-miterlimit:4;stroke-dasharray:none;stroke-dashoffset:4;stroke-opacity:1" />
      <path
         id="path1671"
         d="m 80,3.2168 a 40.984135,40.984135 0 0 0 -7.519531,1.4804687 l 2.511719,6.0644533 C 76.63537,10.295753 78.309172,9.9574314 80,9.7402375 Z m 8,0.035156 v 6.3066407 c 1.717994,0.2139546 3.414893,0.5621763 5.080078,1.0312503 l 2.44336,-5.8945316 A 40.984135,40.984135 0 0 0 88,3.251956 Z m 14.94531,4.4257813 -2.4375,5.8828127 c 1.55129,0.819026 3.04345,1.742383 4.45117,2.787109 l 4.47852,-4.478515 A 40.984135,40.984135 0 0 0 102.94531,7.6777373 Z M 65.0625,7.6933623 a 40.984135,40.984135 0 0 0 -6.46875,4.2070317 l 4.677734,4.677734 c 1.366019,-1.037514 2.802649,-1.9788 4.310547,-2.802734 z m 50.12891,9.7363287 -4.57422,4.574218 c 0.42705,0.521303 0.84013,1.053473 1.23633,1.59961 L 112,23.468753 c 0.65956,0.911538 1.25165,1.857439 1.8125,2.816406 l 5.85352,-2.425781 a 40.984135,40.984135 0 0 0 -4.47461,-6.429687 z m -62.351566,0.0293 a 40.984135,40.984135 0 0 0 -4.476563,6.414063 l 6.107422,2.529297 c 0.165189,-0.282519 0.315077,-0.573822 0.488281,-0.851563 0.04723,-0.0757 0.09476,-0.151222 0.142578,-0.226562 0.705745,-1.140555 1.494669,-2.22529 2.328126,-3.275391 z m 70.056636,13.722657 -5.86718,2.429687 c 0.53493,1.754236 0.92499,3.543218 1.17382,5.351563 h 6.4336 a 40.984135,40.984135 0 0 0 -1.74024,-7.78125 z m -77.765621,0.0098 a 40.984135,40.984135 0 0 0 -1.771484,7.771485 h 6.628906 c 0.271198,-1.782384 0.681044,-3.536265 1.226563,-5.251953 z m 73.232421,15.771485 c -0.17795,1.848079 -0.49882,3.686915 -0.97851,5.5 l 6.08789,2.521484 a 40.984135,40.984135 0 0 0 1.40039,-8.021484 z m -3.91211,12.943359 c -0.26831,0.51381 -0.54398,1.023801 -0.83789,1.523438 -0.45757,0.768688 -0.94492,1.519258 -1.46094,2.25 -0.0595,0.08686 -0.11938,0.173455 -0.17968,0.259765 -0.18504,0.259881 -0.37833,0.51319 -0.57032,0.767578 l 4.70899,4.708985 a 40.984135,40.984135 0 0 0 4.45898,-6.97461 z m -8.58008,10.583984 c -0.46949,0.388565 -0.94522,0.771051 -1.43554,1.134766 l 0.0859,0.09375 c -1.08967,0.778754 -2.22712,1.484962 -3.39843,2.130859 l 2.51757,6.076172 a 40.984135,40.984135 0 0 0 6.90626,-4.759765 z m -12.123043,6.457032 -0.0098,0.002 C 91.863547,77.516609 89.943826,77.923032 88,78.164065 v 3.671876 2.912109 a 40.984135,40.984135 0 0 0 8.275391,-1.699219 z"
         style="opacity:1;vector-effect:none;fill:url(#linearGradient993);fill-opacity:1;stroke:none;stroke-width:7.45166254;stroke-linecap:butt;stroke-linejoin:miter;stroke-miterlimit:4;stroke-dasharray:none;stroke-dashoffset:0;stroke-opacity:1"
         inkscape:connector-curvature="0" />
    </g>
  </g>
</svg>
